X:1
T:Title
%%score { ( 1 3 4 ) | ( 2 5 ) }
L:1/8
M:4/4
K:Eb
V:1 treble nm="Grand Piano"
V:3 treble 
V:4 treble 
V:2 bass 
V:5 bass 
V:1
 z4 z2[Q:1/4=94] G>F | E>E E>E E>D E>F |[M:3/4] G6 |[M:1/4] G>[FA] | %4
[M:4/4] [GB]>[GB] [GB]>[GB] [GB]>[FA] [EG]>[FA] |[M:3/4] B->[GB-] [GB-]>[GB-] [GB]2 | %6
[M:1/4] [GB]>[Ge] |[M:4/4] [Ad]>[Ad] [Ac]>[Ac] [DFA]2 [DFA]>[DFd] |[M:3/4] [Gc]>[Gc] [GB]>[GB] G2 | %9
[M:1/4] G>G |[M:4/4] F>G =A>B c>e d>c |[M:25/32] B-B/4-B-B/4- B3- B3/4 |[M:5/16] B3/4 z/4 z/ z | %13
[M:4/4] e4- e3/2-e/4 z/4 z2 |[M:3/4] c6 |[M:1/4] (3:2:2c2 e |[M:4/4] z4 (3:2:2[Ac]2 [Ac] z2 | %17
[M:11/16] (7:8:12z z3/8 [EG]/4-[EG]3/32[C_G=A]/4-[CGA]3/32-[CGA]-[CGA]/32[CG]/4-[CG]3/32[E=GB]- [EGB]3/8 | %18
[M:5/16] z/ z/ z d/ |[M:4/4] e4- e3/2-e/4 z/4 z2 |[M:3/4] c6 |[M:1/4] (3:2:2c2 e | %22
[M:4/4] (5:4:5[Fd]2 [Fd]/ [Ac]/-[Ac]3/2[Ad]/ z4 |[M:3/4] (3G3 [DF]3 E3 |] %24
V:2
 z4 z2 [E,B,E]>[E,A,E] | [E,G,B,]>[E,G,B,] [E,G,B,]>[E,G,B,] [E,G,B,]>[F,A,B,] [G,B,]>[B,D] | %2
[M:3/4] [E,B,E]>[E,B,] [E,B,]>[E,B,] [E,B,]2 |[M:1/4] [E,B,E]>[E,B,] | %4
[M:4/4] [E,E]>[E,E] [E,E]>[E,E] [E,E]>[E,B,] [E,B,]>[E,B,] | %5
[M:3/4] [E,E]>[E,E] [E,E]>[E,E] [E,E]2 |[M:1/4] [E,E]>[E,B,] | %7
[M:4/4] [F,B,]>[F,B,] [F,B,]>[F,B,] B,2 B,,>B,, |[M:3/4] [E,E]>[E,E] [E,E]>[E,E] [E,B,E]2 | %9
[M:1/4] [E,B,E]>[E,B,E] |[M:4/4] [F,B,D]>[F,B,D] [F,CE]>[F,B,F] [F,=A,F]2 z2 | %11
[M:25/32] z3/2 B,,<B,,B,,/ B,,2- B,,/4- |[M:5/16] B,,/4 z/4 z/ z/ z | %13
[M:4/4] z2 (3:2:2[E,B,]2 [E,B,] [E,B,]3/2-[E,B,]/4 z/4 z2 |[M:3/4] z2 (3:2:2A,2 A, A,2 | %15
[M:1/4] (3:2:2[F,=A,F]2 [F,A,F] |[M:4/4] z4 (5:4:5[B,,B,]2 [B,,B,]/ B,,/-B,,3/2[K:treble]c/ | %17
[M:11/16] (5:4:10B2- B/16[K:bass].E,/-E,3/16E,-E,3/8.E,/-E,3/16 E,2- E,/16 |[M:5/16] z5/2 | %19
[M:4/4] z2 (3:2:2[E,B,]2 [E,B,] [E,B,]3/2-[E,B,]/4 z/4 z2 |[M:3/4] z2 (3:2:2A,2 A, A,2 | %21
[M:1/4] (3:2:2[F,=A,F]2 [F,A,F] |[M:4/4] z4 (5:4:5[E,B,]2 [E,B,]/ [G,B,E]/-[G,B,E]3/2[A,CE]/ | %23
[M:3/4] (3[B,E]3 [B,,A,]3 [E,G,]3 |] %24
V:3
 x8 | x8 |[M:3/4] z z/ E/ E>E E2 |[M:1/4] x2 |[M:4/4] x8 |[M:3/4] G2 z2 z2 |[M:1/4] x2 | %7
[M:4/4] x8 |[M:3/4] x6 |[M:1/4] x2 |[M:4/4] x8 |[M:25/32] z z/4 z z/4 z3/2 [DFA]2- [DFA]/4- | %12
[M:5/16] [DFA]/4 z/4 c/-c-c/4 z/4 |[M:4/4] z4 (5:4:5G2 G/ A/-A3/2B/ | %14
[M:3/4] (5:4:7z3/2 E3/4 E2- E/4E3/4 E2- E/4 |[M:1/4] x2 | %16
[M:4/4] (5:4:5[Fd]2 [Fd]/ [Fd]/-[Fd]3/2[Fd]/ z2 [DAc]3/2-[DAc]/4 z/4 |[M:11/16] x89/16 | %18
[M:5/16] z/ c/-c-c/4 z/4 |[M:4/4] z4 (5:4:5G2 G/ A/-A3/2B/ | %20
[M:3/4] (5:4:7z3/2 E3/4 E2- E/4E3/4 E2- E/4 |[M:1/4] x2 |[M:4/4] z4 (5:4:5[Ge]2 [Ge]/ B/-B3/2A/ | %23
[M:3/4] x6 |] %24
V:4
 x8 | x8 |[M:3/4] x6 |[M:1/4] x2 |[M:4/4] x8 |[M:3/4] x6 |[M:1/4] x2 |[M:4/4] x8 |[M:3/4] x6 | %9
[M:1/4] x2 |[M:4/4] x8 |[M:25/32] z3/2 [B,D]<[DF].[EG] z3/2 z/4 |[M:5/16] z/ z/ z d/ | %13
[M:4/4] (5:4:5z2 G/ G/-G3/2G/ z4 |[M:3/4] x6 |[M:1/4] x2 |[M:4/4] x8 |[M:11/16] x89/16 | %18
[M:5/16] B3/4 z/4 z/ z |[M:4/4] (5:4:5z2 G/ G/-G3/2G/ z4 |[M:3/4] x6 |[M:1/4] x2 |[M:4/4] x8 | %23
[M:3/4] x6 |] %24
V:5
 x8 | x8 |[M:3/4] x6 |[M:1/4] x2 |[M:4/4] x8 |[M:3/4] x6 |[M:1/4] x2 |[M:4/4] x8 |[M:3/4] x6 | %9
[M:1/4] x2 |[M:4/4] x8 |[M:25/32] x25/4 |[M:5/16] x5/2 | %13
[M:4/4] z z/ [E,B,]/- [E,B,]/4 z/4 z/ z z4 |[M:3/4] z z/ A,/- A,/4 z/4 z/ z z2 |[M:1/4] x2 | %16
[M:4/4] (5:4:5[B,,B,]2 [B,,B,]/ [B,,B,]/-[B,,B,]3/2[B,,B,]/ z4[K:treble] | %17
[M:11/16] x53/32[K:bass] x39/10 |[M:5/16] x5/2 |[M:4/4] z z/ [E,B,]/- [E,B,]/4 z/4 z/ z z4 | %20
[M:3/4] z z/ A,/- A,/4 z/4 z/ z z2 |[M:1/4] x2 | %22
[M:4/4] (5:4:5[B,,B,]2 [B,,B,]/ [B,,B,]/-[B,,B,]3/2[B,,B,]/ z4 |[M:3/4] x6 |] %24

